iron.svg

<svg fill="currentColor" viewBox="0 0 24 24"><path d="M21 6c-1.66 0-3 1.34-3 3v4c0 .55-.45 1-1 1v-4c0-1.66-1.34-3-3-3h-4c-1.66 0-3 1.34-3 3h2c0-.55.45-1 1-1h4c.55 0 1 .45 1 1v1H6c-2.21 0-4 1.79-4 4v3h15v-2c1.66 0 3-1.34 3-3V9c0-.55.45-1 1-1h1V6z"/></svg>

<svg  viewBox="0 0 24 24" fill="currentColor"><path  d="M21 6C19.34 6 18 7.34 18 9V13C18 13.55 17.55 14 17 14V10C17 8.34 15.66 7 14 7H10C8.34 7 7 8.34 7 10H9C9 9.45 9.45 9 10 9H14C14.55 9 15 9.45 15 10V11H6C3.79 11 2 12.79 2 15V18H17V16C18.66 16 20 14.66 20 13V9C20 8.45 20.45 8 21 8H22V6H21Z"/></svg>
